X:1
T:Title
L:1/8
Q:1/4=90
M:4/4
K:F
V:1 treble nm="Church Organ, Staff"
V:1
 F F2 E- E/G/ F3 | B B2 A- A/c/ B3 | B d2 B G F2 D | G F2 C- C/C/ D3 | F F2 E G F2 D | %5
w: By~B.~W.~J.~Trevaldwyn * * * * *|||||
 F B2 c- c/ z/ d3 | d d2 c G B2 A | G F2 c- c/ z/ B3 | z B- B/B/B B B2 A- | A_e- e/e/d c c2 B- | %10
w: |||||
 BG- G/G/B G F2 B- | BBAG A B3 |] %12
w: ||

